src/assets/X.svg

<svg width="28" height="28" viewBox="0 0 28 28" fill="none" xmlns="http://www.w3.org/2000/svg">
<path d="M6.26107 0.952182L0.952127 6.26113L8.90425 14.2133L0.952127 22.1654L6.26107 27.4743L14.2132 19.5222L22.1653 27.4743L27.4743 22.1654L19.5221 14.2133L27.4743 6.26113L22.1653 0.952181L14.2132 8.90431L6.26107 0.952182Z" fill="white"/>
</svg>

<svg width="28" height="28" fill="none" xmlns="http://www.w3.org/2000/svg"><path d="M6.261.952.952 6.262l7.952 7.951-7.952 7.952 5.31 5.31 7.951-7.953 7.952 7.952 5.31-5.309-7.953-7.952 7.952-7.952L22.165.952l-7.952 7.952L6.261.952Z" fill="#fff"/></svg>
